X:1
T: Marry the Piper Girls
C:
R:Jig
Q:180
K:G
M:6/8
L:1/16
|:G4G2 G4B2|A2B2A2 A4B2|G4G2 G4B2|d6g6|
G2A2G2 G4B2|A2B2A2 A4f2|g4e2 e2d2B2|d6d6:|
|:g2a2g2 g2f2e2|d2e2d2 d2c2B2|g2f2g2 a2g2a2|b6e4d2|
g2a2g2 g2f2e2|d2e2d2 d2c2B2|g4e2 e2d2B2|d2e2d2 c2B2A2:|
